X:1845
T:The Battle Of Aughrim
M:2/4
L:1/16
B:O'Neill's 1845
Z:"Transcribed by Bob Safranek, rjs@gsp.org"
Z:There is no way to duplicate the notation of the grace notes in bar 8
K:G
ABAG ABAE|ABAG ABAE|ABAG ABAE|ABAG ABAE|
3AGA 3AGA 3AGA AE|3AGA 3AGA 3AGA AE|\
3AGA 3AGA 3AGA AE|
C/E/F/GAB3c d3e|d2e2 d2f2|d2e2 d2f2|d2e2 d2e2|Td8|cBAG HE4|
ABAG ABAE|ABAG ABAE|ABAG AE|
3AGA 3AGA 3AGA AE|3AGA 3AGA 3AGA AE|GABc d3e|\
d3e d2f2|d2e2 d4|cBAG HE4|]
